symbols/web/phonelink_off/materialsymbolsrounded/phonelink_off_wght700grad200_40px.svg

<svg xmlns="http://www.w3.org/2000/svg" height="40" width="40"><path d="M14.458 9.458 10.042 5H33q.917 0 1.583.625.667.625.667 1.583 0 .959-.667 1.605-.666.645-1.583.645Zm22.834 22.834-3.334-3.375V15H24.5v4.458l-3.375-3.375v-2.541q0-.792.542-1.334.541-.541 1.375-.541h12.041q.875 0 1.542.5t.667 1.333ZM30.542 35H23q-.833 0-1.354-.604-.521-.604-.521-1.479v-7.292L10.667 15.208v13.959H16q1.208 0 2.083.854.875.854.875 2.021 0 1.208-.875 2.083Q17.208 35 16 35H5.458q-1.25 0-2.104-.854-.854-.854-.854-2.104 0-1.209.854-2.042.854-.833 2.104-.833h.792V10.75L3.083 7.667q-.208-.209-.125-.709.084-.5.209-.958.125-.458.166-.75.042-.292-.208-.042.458-.416 1.167-.416.708 0 1.208.458l30.917 30.875q.166.292.104.75-.063.458-.188.917-.125.458-.166.729-.042.271.25-.021-.459.5-1.209.5T34 38.5Z"/></svg>

<svg xmlns="http://www.w3.org/2000/svg" height="40" width="40"><path d="M14.458 9.458 10.042 5H33Q33.917 5 34.583 5.625Q35.25 6.25 35.25 7.208Q35.25 8.167 34.583 8.813Q33.917 9.458 33 9.458ZM37.292 32.292 33.958 28.917V15H24.5V19.458L21.125 16.083V13.542Q21.125 12.75 21.667 12.208Q22.208 11.667 23.042 11.667H35.083Q35.958 11.667 36.625 12.167Q37.292 12.667 37.292 13.5ZM30.542 35H23Q22.167 35 21.646 34.396Q21.125 33.792 21.125 32.917V25.625L10.667 15.208V29.167H16Q17.208 29.167 18.083 30.021Q18.958 30.875 18.958 32.042Q18.958 33.25 18.083 34.125Q17.208 35 16 35H5.458Q4.208 35 3.354 34.146Q2.5 33.292 2.5 32.042Q2.5 30.833 3.354 30Q4.208 29.167 5.458 29.167H6.25V10.75L3.083 7.667Q2.875 7.458 2.958 6.958Q3.042 6.458 3.167 6Q3.292 5.542 3.333 5.25Q3.375 4.958 3.125 5.208Q3.583 4.792 4.292 4.792Q5 4.792 5.5 5.25L36.417 36.125Q36.583 36.417 36.521 36.875Q36.458 37.333 36.333 37.792Q36.208 38.25 36.167 38.521Q36.125 38.792 36.417 38.5Q35.958 39 35.208 39Q34.458 39 34 38.5Z"/></svg>
